polaris-icons/icons/new-icons/PromoteMinor.svg

<svg width="20" height="20" viewBox="0 0 20 20" fill="none" xmlns="http://www.w3.org/2000/svg">
<path fill-rule="evenodd" clip-rule="evenodd" d="M3 9.75058C3 8.34799 4.09572 7.18971 5.49615 7.1119L9.2887 6.90121C9.46413 6.89146 9.63389 6.83567 9.78089 6.73945L14.3273 3.76359C14.9924 3.32827 15.875 3.80541 15.875 4.60029V7.78528C16.8003 7.96081 17.5 8.77379 17.5 9.75018C17.5 10.7266 16.8003 11.5395 15.875 11.7151V14.9009C15.875 15.6957 14.9924 16.1729 14.3273 15.7376L10.1381 12.9955L9.84876 15.4546C9.74508 16.336 8.99815 17.0002 8.11075 17.0002H7.75C6.7835 17.0002 6 16.2167 6 15.2502V12.4172L5.49615 12.3893C4.09572 12.3115 3 11.1532 3 9.75058ZM5.57936 8.60959C4.9738 8.64324 4.5 9.14409 4.5 9.75058C4.5 10.3571 4.9738 10.8579 5.57936 10.8916L9.37191 11.1023C9.81047 11.1266 10.2349 11.2661 10.6024 11.5067L14.375 13.976V5.52515L10.6024 7.9945C10.2349 8.23505 9.81047 8.37453 9.37191 8.3989L5.57936 8.60959ZM7.5 12.5006V15.2502C7.5 15.3882 7.61193 15.5002 7.75 15.5002H8.11075C8.23752 15.5002 8.34423 15.4053 8.35904 15.2794L8.67826 12.566L7.5 12.5006Z" fill="#4A4A4A"/>
</svg>

<svg viewBox="0 0 20 20" xmlns="http://www.w3.org/2000/svg"><path fill-rule="evenodd" d="M3 9.75a2.643 2.643 0 0 1 2.496-2.638l3.793-.21a1 1 0 0 0 .492-.163l4.546-2.975a1 1 0 0 1 1.548.836v3.185a2 2 0 0 1 0 3.93v3.186a1 1 0 0 1-1.548.837l-4.189-2.742-.29 2.459a1.75 1.75 0 0 1-1.737 1.545h-.361a1.75 1.75 0 0 1-1.75-1.75v-2.833l-.504-.028a2.643 2.643 0 0 1-2.496-2.638Zm2.58-1.14a1.143 1.143 0 0 0 0 2.282l3.792.21c.438.025.863.164 1.23.405l3.773 2.469v-8.45l-3.773 2.469a2.5 2.5 0 0 1-1.23.404l-3.793.21Zm1.92 3.89v2.75c0 .138.112.25.25.25h.36a.25.25 0 0 0 .249-.22l.32-2.714-1.179-.065Z" fill="#5C5F62"/></svg>
